!!!ONB: MCCC : IJH0405_05 : Extracted Monophonic Melody
!!!COM: Haydn, Joseph
!!!OPR: String Quartet in B-flat major
!!!OMV: 5
!!!SCT: Hob.III:1 ; Op.1 No.1
!!!ODT: 1757///
**kern
*thru
*k[b-e-]
*B-:
*clefF
*M2/4
4.ff
24gg
24ff
24ee-
=1
4.dd
24ee-
24dd
24cc
=2
8b-
8a
8b-
8cc
=3
8dd
8ee-
8dd
8cc
=4
8b-
8a
8g
8f
=5
8e-
8d
4r
=6
2r
=7
16b-
16dd
16ff
16bb-
16ddd
16bb-
16aa
16bb-
=8
4ccc
4r
=9
16a
16cc
16ff
16aa
16ccc
16aa
16gg
16aa
=10
4bb-
4r
=11
16g
16b-
16ee
16gg
16bb-
16gg
16ff
16gg
=12
16aa
16ff
16ee
16ff
16bb-
16ff
16ee
16ff
=13
16ccc
16ff
16ee
16ff
16dd
16ff
16ee
16ff
=14
16cc
16ff
16ee
16ff
16dd
16ff
16ee
16ff
=15
16cc
16bb-
16aa
16gg
4gg
=16
4ff
4r
=17
2r
=18
8r
8ff
8ff
8ff
=19
24ee
24ff
24gg
8ff
8gg
8aa
=20
24gg
24aa
24bb-
8aa
4r
=21
2r
=22
8r
8cc
8cc
8cc
=23
24dd
24ee
24ff
8a
24b-
24cc
24dd
8g
=24
24a
24b-
24cc
8f
4g
=25
16f
16c
16A
16c
16f
16c
16A
16c
=26
4f
4r
=27
2r
=28
2r
=29
2aa
=30
16aa
16bb-
16aa
16bb-
16ccc
16aa
16ff
16ee-
=31
4dd
4r
=32
2r
=33
2bb-
=34
16bb-
16aa
16bb-
16ccc
16ddd
16ff
16ee-
16dd
=35
4ee-
4r
=36
16f
16ee-
16dd
16ee-
16ccc
16ee-
16dd
16cc
=37
4dd
4r
=38
16f
16dd
16cc
16dd
16bb-
16dd
16cc
16b-
=39
16a
16b-
16cc
16dd
16ee-
16cc
16dd
16b-
=40
4cc
4r
=41
4.ff
24gg
24ff
24ee-
=42
4.dd
24ee-
24dd
24cc
=43
8b-
8a
8b-
8cc
=44
8dd
8ee-
8dd
8cc
=45
8b-
8a
8g
8f
=46
8e-
8d
4r
=47
2r
=48
16e-
16g
16b-
16ee-
16gg
16ee-
16dd
16ee-
=49
4ff
4r
=50
16b-
16dd
16ff
16bb-
16ddd
16bb-
16ff
16dd
=51
4ee-
4r
=52
16A
16c
16f
16a
16cc
16ee-
16dd
16cc
=53
16dd
16b-
16a
16b-
16ee-
16b-
16a
16b-
=54
16ff
16b-
16a
16b-
16gg
16b-
16a
16b-
=55
16ff
16b-
16a
16b-
16gg
16b-
16a
16b-
=56
16ff
16dd
16cc
16b-
4cc
=57
4b-
4r
=58
2r
=59
8r
8b-
8b-
8b-
=60
24a
24b-
24cc
8b-
8cc
8dd
=61
24cc
24dd
24ee-
8dd
4r
=62
2r
=63
8r
8ff
8ff
8ff
=64
24gg
24aa
24bb-
8dd
24ee-
24ff
24gg
8cc
=65
24dd
24ee-
24ff
8b-
4cc
=66
16b-
16f
16d
16f
16b-
16f
16d
16f
=67
4b-
4r
==
*-
